public/assets/images/icons/white/export/group.svg

<svg width="16" height="16" xmlns="http://www.w3.org/2000/svg" viewBox="0 0 16 16" shape-rendering="geometricPrecision" fill="#fff"><defs><mask id="a"><rect width="100%" height="100%"/><path d="M13.848-1.1L12.051.695l.286.287A4.455 4.455 0 0 0 9.23 5.236v.987h2.626v-.988c0-.491.191-.954.538-1.302l.03-.03 1.425 1.421 3.212-3.213L13.848-1.1z" fill="#000"/></mask></defs><path d="M13.848-.04l-.736.735.821.821h-.234l-.156.008A3.722 3.722 0 0 0 9.98 5.235v.237h1.126v-.237c0-.691.27-1.343.759-1.833a2.579 2.579 0 0 1 1.833-.759h.3l-.886.887.735.734L16 2.111 13.848-.04z" fill="#cb1800"/><g mask="url(#a)"><path d="M14.625 6.406c-.281-.844-3.277.058-5.172.453-.673.141.552-1.619 1.235-2.89.398-.742-.031-1-2.375-1.031C5.969 2.906 1.489 4.244 1.062 7.5c-.438 3.344 2.625 6.031 7.594 5.344 5.95-.823 6.164-5.853 5.969-6.438zm-12.109.453a.922.922 0 1 1 1.845 0 .922.922 0 0 1-1.845 0zm1.375 4.004a1.03 1.03 0 1 1 0-2.062 1.03 1.03 0 0 1 0 2.062zm1.031-5.832a.75.75 0 1 1 1.5 0 .75.75 0 0 1-1.5 0zm2.328 6.998a1.174 1.174 0 1 1-.267-2.334 1.174 1.174 0 0 1 .267 2.334zm3.246-.563a1.174 1.174 0 1 1-.267-2.334 1.174 1.174 0 0 1 .267 2.334zm2.146-2.242a.803.803 0 1 1-.18-1.596.803.803 0 0 1 .18 1.596z"/></g></svg>

<?xml version="1.0"?><!DOCTYPE svg PUBLIC "-//W3C//DTD SVG 1.1//EN" "http://www.w3.org/Graphics/SVG/1.1/DTD/svg11.dtd"><svg width="16px" height="16px" xmlns="http://www.w3.org/2000/svg" viewBox="0 0 16 16" shape-rendering="geometricPrecision" fill="#fff"><defs><mask id="export-path"><rect fill="#fff" width="100%" height="100%"/><path d="M13.848-1.1l-1.797,1.795l0.286,0.287c-1.812,0.575-3.107,2.263-3.107,4.254v0.987h2.626 V5.235c0-0.491,0.191-0.954,0.538-1.302c0.01-0.01,0.021-0.02,0.03-0.03l1.425,1.421l3.212-3.213L13.848-1.1z" fill="#000"/></mask></defs><path id="export" display="inline" d="M13.848-0.04l-0.736,0.735l0.821,0.821h-0.234 l-0.156,0.008c-1.978,0.084-3.563,1.714-3.563,3.711v0.237h1.126V5.235c0-0.691,0.27-1.343,0.759-1.833 c0.49-0.489,1.141-0.759,1.833-0.759h0.237V2.643h0.063L13.112,3.53l0.735,0.734L16,2.111L13.848-0.04z" fill="#cb1800"/><g mask="url(#export-path)"><path d="M14.625,6.406c-0.281-0.844-3.277,0.058-5.172,0.453C8.78,7,10.005,5.24,10.688,3.969 c0.398-0.742-0.031-1-2.375-1.031C5.969,2.906,1.489,4.244,1.062,7.5c-0.438,3.344,2.625,6.031,7.594,5.344 C14.606,12.021,14.82,6.991,14.625,6.406z M2.516,6.859c0-0.509,0.413-0.922,0.922-0.922c0.509,0,0.922,0.413,0.922,0.922 c0,0.509-0.413,0.922-0.922,0.922C2.928,7.781,2.516,7.369,2.516,6.859z M3.891,10.863c-0.57,0-1.031-0.462-1.031-1.031 c0-0.57,0.462-1.031,1.031-1.031c0.57,0,1.031,0.462,1.031,1.031C4.922,10.401,4.46,10.863,3.891,10.863z M4.922,5.031 c0-0.414,0.336-0.75,0.75-0.75c0.414,0,0.75,0.336,0.75,0.75c0,0.414-0.336,0.75-0.75,0.75C5.258,5.781,4.922,5.445,4.922,5.031z M7.25,12.029c-0.644,0.074-1.226-0.389-1.3-1.033c-0.074-0.644,0.389-1.226,1.033-1.3c0.644-0.074,1.226,0.389,1.3,1.033 C8.356,11.374,7.894,11.955,7.25,12.029z M10.496,11.466c-0.644,0.074-1.226-0.389-1.3-1.033c-0.074-0.644,0.389-1.226,1.033-1.3 c0.644-0.074,1.226,0.389,1.3,1.033C11.602,10.81,11.14,11.392,10.496,11.466z M12.642,9.224c-0.44,0.05-0.837-0.266-0.888-0.706 c-0.05-0.44,0.266-0.837,0.706-0.888c0.44-0.05,0.838,0.266,0.888,0.706C13.398,8.776,13.082,9.173,12.642,9.224z"/></g></svg>
